public/images/logo.svg

<svg height="387" viewBox="0 0 403.511161 387" width="403.511161" xmlns="http://www.w3.org/2000/svg"><path d="m211.045337 0c83.943402 0 156.440209 44.9343398 190.43853 110.000097l-64.482966-.002154c-28.238956-35.7456744-74.135613-58.997943-125.955564-58.997943-85.83664 0-155.4209847 63.799423-155.4209847 142.5s69.5843447 142.5 155.4209847 142.5c53.728077 0 101.088611-24.996196 129.002617-62.996931l63.463207.000268c-33.080101 67.215119-106.814386 113.996663-192.465824 113.996663-116.5571212 0-211.045337-86.632901-211.045337-193.5 0-106.8670991 94.4882158-193.5 211.045337-193.5zm125.71572 164-32.21572 50h-216.0000002v-50z" fill="#fff" fill-rule="evenodd"/></svg>

<?xml version="1.0" encoding="UTF-8"?>
<svg width="403.511161px" height="387px" viewBox="0 0 403.511161 387" version="1.1" xmlns="http://www.w3.org/2000/svg" xmlns:xlink="http://www.w3.org/1999/xlink">
    <g stroke="none" stroke-width="1" fill="none" fill-rule="evenodd">
        <path d="M211.045337,0 C294.988739,0 367.485546,44.9343398 401.483867,110.000097 L337.000901,109.997943 C308.761945,74.2522686 262.865288,51 211.045337,51 C125.208697,51 55.6243523,114.799423 55.6243523,193.5 C55.6243523,272.200577 125.208697,336 211.045337,336 C264.773414,336 312.133948,311.003804 340.047954,273.003069 L403.511161,273.003337 C370.43106,340.218456 296.696775,387 211.045337,387 C94.4882158,387 0,300.367099 0,193.5 C0,86.6329009 94.4882158,0 211.045337,0 Z M336.761057,164 L304.545337,214 L88.5453368,214 L88.5453368,164 L336.761057,164 Z" id="形状结合" fill="#ffffff"></path>
    </g>
</svg>
